X:56
T:The Eavesdropper
M:6/8
L:1/8
K:G
E|:D2B BAG|Bdd dBG|cde dBG|BAA AGE|
D2B BAG|Bdd dBG|cde dBA|1 BGG G2 E:|2  BGG G2 d|
|:~g2g afd|efg dBG|cde dBG|BAA A2 d|
|1 gab afd|efg dBG|cde dBA| BGG G2d:|
|2 D2B BAG|Bdd dBG|cde dBA|1 BGG G2 E |>|
